images/icon/history.svg

<svg height="140" viewBox="0 0 140 140" width="140" xmlns="http://www.w3.org/2000/svg"><g transform="scale(5.83333333)"><path d="m7.5 10.5h-1a1 1 0 1 0 0 2h1a1 1 0 0 0 0-2z"/><path d="m12.5 10.5h-1a1 1 0 0 0 0 2h1a1 1 0 0 0 0-2z"/><path d="m17.5 10.5h-1a1 1 0 0 0 0 2h1a1 1 0 0 0 0-2z"/><path d="m7.5 14.5h-1a1 1 0 1 0 0 2h1a1 1 0 0 0 0-2z"/><path d="m12.5 14.5h-1a1 1 0 1 0 0 2h1a1 1 0 0 0 0-2z"/><path d="m17.5 14.5h-1a1 1 0 1 0 0 2h1a1 1 0 0 0 0-2z"/><path d="m7.5 18.5h-1a1 1 0 0 0 0 2h1a1 1 0 0 0 0-2z"/><path d="m12.5 18.5h-1a1 1 0 0 0 0 2h1a1 1 0 1 0 0-2z"/><path d="m17.5 18.5h-1a1 1 0 0 0 0 2h1a1 1 0 0 0 0-2z"/><path d="m21.5 3h-2.75a.25.25 0 0 1 -.25-.25v-1.75a1 1 0 0 0 -2 0v4.75a.75.75 0 1 1 -1.5 0v-2.25a.5.5 0 0 0 -.5-.5h-6.25a.25.25 0 0 1 -.25-.249v-1.751a1 1 0 1 0 -2 0v4.75a.75.75 0 1 1 -1.5 0v-2.25a.5.5 0 0 0 -.5-.5h-1.5a2 2 0 0 0 -2 2v17a2 2 0 0 0 2 2h19a2 2 0 0 0 2-2v-17a2 2 0 0 0 -2-2zm0 18.5a.5.5 0 0 1 -.5.5h-18a.5.5 0 0 1 -.5-.5v-12a.5.5 0 0 1 .5-.5h18a.5.5 0 0 1 .5.5z"/></g></svg>

<svg viewBox="0 0 140 140" height="140" width="140" xmlns="http://www.w3.org/2000/svg"><g transform="matrix(5.833333333333333,0,0,5.833333333333333,0,0)"><path d="M7.5,10.5h-1a1,1,0,1,0,0,2h1a1,1,0,0,0,0-2Z" fill="#000" stroke="none" stroke-linecap="round" stroke-linejoin="round" stroke-width="0"></path><path d="M12.5,10.5h-1a1,1,0,0,0,0,2h1a1,1,0,0,0,0-2Z" fill="#000" stroke="none" stroke-linecap="round" stroke-linejoin="round" stroke-width="0"></path><path d="M17.5,10.5h-1a1,1,0,0,0,0,2h1a1,1,0,0,0,0-2Z" fill="#000" stroke="none" stroke-linecap="round" stroke-linejoin="round" stroke-width="0"></path><path d="M7.5,14.5h-1a1,1,0,1,0,0,2h1a1,1,0,0,0,0-2Z" fill="#000" stroke="none" stroke-linecap="round" stroke-linejoin="round" stroke-width="0"></path><path d="M12.5,14.5h-1a1,1,0,1,0,0,2h1a1,1,0,0,0,0-2Z" fill="#000" stroke="none" stroke-linecap="round" stroke-linejoin="round" stroke-width="0"></path><path d="M17.5,14.5h-1a1,1,0,1,0,0,2h1a1,1,0,0,0,0-2Z" fill="#000" stroke="none" stroke-linecap="round" stroke-linejoin="round" stroke-width="0"></path><path d="M7.5,18.5h-1a1,1,0,0,0,0,2h1a1,1,0,0,0,0-2Z" fill="#000" stroke="none" stroke-linecap="round" stroke-linejoin="round" stroke-width="0"></path><path d="M12.5,18.5h-1a1,1,0,0,0,0,2h1a1,1,0,1,0,0-2Z" fill="#000" stroke="none" stroke-linecap="round" stroke-linejoin="round" stroke-width="0"></path><path d="M17.5,18.5h-1a1,1,0,0,0,0,2h1a1,1,0,0,0,0-2Z" fill="#000" stroke="none" stroke-linecap="round" stroke-linejoin="round" stroke-width="0"></path><path d="M21.5,3H18.75a.25.25,0,0,1-.25-.25V1a1,1,0,0,0-2,0v4.75a.75.75,0,1,1-1.5,0V3.5a.5.5,0,0,0-.5-.5H8.25A.25.25,0,0,1,8,2.751V1A1,1,0,1,0,6,1v4.75a.75.75,0,1,1-1.5,0V3.5A.5.5,0,0,0,4,3H2.5a2,2,0,0,0-2,2V22a2,2,0,0,0,2,2h19a2,2,0,0,0,2-2V5A2,2,0,0,0,21.5,3Zm0,18.5a.5.5,0,0,1-.5.5H3a.5.5,0,0,1-.5-.5V9.5A.5.5,0,0,1,3,9H21a.5.5,0,0,1,.5.5Z" fill="#000" stroke="none" stroke-linecap="round" stroke-linejoin="round" stroke-width="0"></path></g></svg>
